Icons/com_andrwq_recorder.svg

<svg viewBox="0 0 48 48" xmlns:xlink="http://www.w3.org/1999/xlink">
 <defs>
  <linearGradient id="0">
   <stop stop-opacity="0"/>
   <stop offset="1"/>
  </linearGradient>
  <linearGradient xlink:href="#0" id="1" gradientUnits="userSpaceOnUse" gradientTransform="translate(4e-7,-48)" y1="47" x2="0" y2="1"/>
  <clipPath id="2">
   <g transform="translate(0,-1004.3622)">
    <rect rx="4" y="1005.36" x="1" height="46" width="46" fill="#1890d0"/>
   </g>
  </clipPath>
  <clipPath id="3">
   <g transform="translate(0,-1004.3622)">
    <rect rx="4" y="1005.36" x="1" height="46" width="46" fill="#1890d0"/>
   </g>
  </clipPath>
 </defs>
 <g>
  <g transform="translate(0,-1004.3622)">
   <path d="m 5,1006.3622 c -2.216,0 -4,1.784 -4,4 l 0,37.25 c 0,2.216 1.784,4 4,4 l 38,0 c 2.216,0 4,-1.784 4,-4 l 0,-37.25 c 0,-2.216 -1.784,-4 -4,-4 l -38,0 z m -4,41.5 0,0.5 c 0,2.216 1.784,4 4,4 l 38,0 c 2.216,0 4,-1.784 4,-4 l 0,-0.5 c 0,2.216 -1.784,4 -4,4 l -38,0 c -2.216,0 -4,-1.784 -4,-4 z" opacity="0.02"/>
   <path d="m 1,1047.6122 0,0.25 c 0,2.216 1.784,4 4,4 l 38,0 c 2.216,0 4,-1.784 4,-4 l 0,-0.25 c 0,2.216 -1.784,4 -4,4 l -38,0 c -2.216,0 -4,-1.784 -4,-4 z" opacity="0.05"/>
   <rect width="46" height="46" x="1" y="1005.61" rx="4" opacity="0.1"/>
  </g>
 </g>
 <g>
  <g transform="translate(0,-1004.3622)">
   <rect rx="4" y="1005.36" x="1" height="46" width="46" fill="#707070"/>
  </g>
 </g>
 <g>
  <rect transform="scale(1,-1)" width="46" height="46" x="1" y="-46.998" rx="4" opacity="0.1" fill="url(#1)"/>
 </g>
 <g>
  <g clip-path="url(#2)">
   <g opacity="0.1">
    <g>
     <path d="M 23.96875 12 C 21.21875 12 19 14.21875 19 16.96875 L 19 17 L 23 17 L 23 18 L 19 18 L 19 19 L 23 19 L 23 20 L 19 20 L 19 21 L 23 21 L 23 22 L 19 22 L 19 24.03125 C 19 26.78125 21.21875 29 23.96875 29 L 24.03125 29 C 26.78125 29 29 26.78125 29 24.03125 L 29 22 L 25 22 L 25 21 L 29 21 L 29 20 L 25 20 L 25 19 L 29 19 L 29 18 L 25 18 L 25 17 L 29 17 L 29 16.96875 C 29 14.21875 26.78125 12 24.03125 12 Z M 23.96875 12 " fill-opacity="0.902"/>
     <path d="M 16 23 C 16 23 16.144531 31.523438 23 31.5 L 23 34 L 20 34 L 20 36 L 28 36 L 28 34 L 25 34 L 25 31.5 C 31.855469 31.5625 32 23 32 23 L 30.351562 23 C 30.351562 23 30.390625 30 24 30 C 17.609375 30 17.648438 23 17.648438 23 Z M 16 23 " fill-opacity="0.902"/>
     <path d="M 36 34 C 36 35.105469 35.105469 36 34 36 C 32.894531 36 32 35.105469 32 34 C 32 32.894531 32.894531 32 34 32 C 35.105469 32 36 32.894531 36 34 Z M 36 34 "/>
    </g>
   </g>
  </g>
 </g>
 <g>
  <g clip-path="url(#3)">
   <g transform="translate(0,-1)">
    <g>
     <path d="M 23.96875 12 C 21.21875 12 19 14.21875 19 16.96875 L 19 17 L 23 17 L 23 18 L 19 18 L 19 19 L 23 19 L 23 20 L 19 20 L 19 21 L 23 21 L 23 22 L 19 22 L 19 24.03125 C 19 26.78125 21.21875 29 23.96875 29 L 24.03125 29 C 26.78125 29 29 26.78125 29 24.03125 L 29 22 L 25 22 L 25 21 L 29 21 L 29 20 L 25 20 L 25 19 L 29 19 L 29 18 L 25 18 L 25 17 L 29 17 L 29 16.96875 C 29 14.21875 26.78125 12 24.03125 12 Z M 23.96875 12 " fill="#f9f9f9" fill-opacity="0.902"/>
     <path d="M 16 23 C 16 23 16.144531 31.523438 23 31.5 L 23 34 L 20 34 L 20 36 L 28 36 L 28 34 L 25 34 L 25 31.5 C 31.855469 31.5625 32 23 32 23 L 30.351562 23 C 30.351562 23 30.390625 30 24 30 C 17.609375 30 17.648438 23 17.648438 23 Z M 16 23 " fill="#f9f9f9" fill-opacity="0.902"/>
     <path d="M 36 34 C 36 35.105469 35.105469 36 34 36 C 32.894531 36 32 35.105469 32 34 C 32 32.894531 32.894531 32 34 32 C 35.105469 32 36 32.894531 36 34 Z M 36 34 " fill="#ff5c55"/>
    </g>
   </g>
  </g>
 </g>
 <g>
  <g transform="translate(0,-1004.3622)">
   <path d="m 1,1043.3622 0,4 c 0,2.216 1.784,4 4,4 l 38,0 c 2.216,0 4,-1.784 4,-4 l 0,-4 c 0,2.216 -1.784,4 -4,4 l -38,0 c -2.216,0 -4,-1.784 -4,-4 z" opacity="0.1"/>
  </g>
 </g>
</svg>

<svg viewBox="0 0 48 48"><defs><linearGradient id="linearGradient3764" x1="1" x2="47" gradientUnits="userSpaceOnUse" gradientTransform="translate(-48.000001,0.00221467)"><stop stop-color="#666" stop-opacity="1"/><stop offset="1" stop-color="#707070" stop-opacity="1"/></linearGradient><clipPath id="clipPath-671463923"><g transform="translate(0,-1004.3622)"><rect rx="4" y="1005.36" x="1" height="46" width="46" fill="#1890d0"/></g></clipPath><clipPath id="clipPath-684092157"><g transform="translate(0,-1004.3622)"><rect rx="4" y="1005.36" x="1" height="46" width="46" fill="#1890d0"/></g></clipPath></defs><g><path d="m 1 43 l 0 0.25 c 0 2.216 1.784 4 4 4 l 38 0 c 2.216 0 4 -1.784 4 -4 l 0 -0.25 c 0 2.216 -1.784 4 -4 4 l -38 0 c -2.216 0 -4 -1.784 -4 -4 z m 0 0.5 l 0 0.5 c 0 2.216 1.784 4 4 4 l 38 0 c 2.216 0 4 -1.784 4 -4 l 0 -0.5 c 0 2.216 -1.784 4 -4 4 l -38 0 c -2.216 0 -4 -1.784 -4 -4 z" opacity="0.02"/><path d="m 1 43.25 l 0 0.25 c 0 2.216 1.784 4 4 4 l 38 0 c 2.216 0 4 -1.784 4 -4 l 0 -0.25 c 0 2.216 -1.784 4 -4 4 l -38 0 c -2.216 0 -4 -1.784 -4 -4 z" opacity="0.05"/><path d="m 1 43 l 0 0.25 c 0 2.216 1.784 4 4 4 l 38 0 c 2.216 0 4 -1.784 4 -4 l 0 -0.25 c 0 2.216 -1.784 4 -4 4 l -38 0 c -2.216 0 -4 -1.784 -4 -4 z" opacity="0.1"/></g><g><rect width="46" height="46" x="-47" y="1" rx="4" transform="matrix(0,-1,1,0,0,0)" fill="url(#linearGradient3764)" fill-opacity="1"/></g><g><g clip-path="url(#clipPath-671463923)"><g opacity="0.1"><!-- color: #707070 --><g><path d="m 23.969 12 c -2.75 0 -4.969 2.219 -4.969 4.969 l 0 0.031 l 4 0 l 0 1 l -4 0 l 0 1 l 4 0 l 0 1 l -4 0 l 0 1 l 4 0 l 0 1 l -4 0 l 0 2.031 c 0 2.75 2.219 4.969 4.969 4.969 l 0.063 0 c 2.75 0 4.969 -2.219 4.969 -4.969 l 0 -2.031 l -4 0 l 0 -1 l 4 0 l 0 -1 l -4 0 l 0 -1 l 4 0 l 0 -1 l -4 0 l 0 -1 l 4 0 l 0 -0.031 c 0 -2.75 -2.219 -4.969 -4.969 -4.969 m -0.063 0" fill-opacity="0.902" fill="#000"/><path d="m 16 23 c 0 0 0.145 8.523 7 8.5 l 0 2.5 l -3 0 l 0 2 l 8 0 l 0 -2 l -3 0 l 0 -2.5 c 6.855 0.063 7 -8.5 7 -8.5 l -1.648 0 c 0 0 0.039 7 -6.352 7 c -6.391 0 -6.352 -7 -6.352 -7 m -1.648 0" fill-opacity="0.902" fill="#000"/><path d="m 36 34 c 0 1.105 -0.895 2 -2 2 c -1.105 0 -2 -0.895 -2 -2 c 0 -1.105 0.895 -2 2 -2 c 1.105 0 2 0.895 2 2 m 0 0" fill="#000"/></g></g></g></g><g><g clip-path="url(#clipPath-684092157)"><g transform="translate(0,-1)"><!-- color: #707070 --><g><path d="m 23.969 12 c -2.75 0 -4.969 2.219 -4.969 4.969 l 0 0.031 l 4 0 l 0 1 l -4 0 l 0 1 l 4 0 l 0 1 l -4 0 l 0 1 l 4 0 l 0 1 l -4 0 l 0 2.031 c 0 2.75 2.219 4.969 4.969 4.969 l 0.063 0 c 2.75 0 4.969 -2.219 4.969 -4.969 l 0 -2.031 l -4 0 l 0 -1 l 4 0 l 0 -1 l -4 0 l 0 -1 l 4 0 l 0 -1 l -4 0 l 0 -1 l 4 0 l 0 -0.031 c 0 -2.75 -2.219 -4.969 -4.969 -4.969 m -0.063 0" fill="#f9f9f9" fill-opacity="0.902"/><path d="m 16 23 c 0 0 0.145 8.523 7 8.5 l 0 2.5 l -3 0 l 0 2 l 8 0 l 0 -2 l -3 0 l 0 -2.5 c 6.855 0.063 7 -8.5 7 -8.5 l -1.648 0 c 0 0 0.039 7 -6.352 7 c -6.391 0 -6.352 -7 -6.352 -7 m -1.648 0" fill="#f9f9f9" fill-opacity="0.902"/><path d="m 36 34 c 0 1.105 -0.895 2 -2 2 c -1.105 0 -2 -0.895 -2 -2 c 0 -1.105 0.895 -2 2 -2 c 1.105 0 2 0.895 2 2 m 0 0" fill="#ff5c55"/></g></g></g></g><g><g transform="translate(0,-1004.3622)"><path d="m 1 1043.36 0 4 c 0 2.216 1.784 4 4 4 l 38 0 c 2.216 0 4 -1.784 4 -4 l 0 -4 c 0 2.216 -1.784 4 -4 4 l -38 0 c -2.216 0 -4 -1.784 -4 -4 z" opacity="0.1"/></g></g></svg>
